X:1
T: The Hop Ground
N:
C:
S:
A:
O:
R:
M:6/8
K:D
I:speed 150
%W: A1
% voice 1 (1 lines, 48 notes)
K:D
M:6/8
L:1/16
A2 d2 d2 f2 e2 d2 g2 f2 e2 f2 e2 d2 A2 d2 d2 f2 e2 d2 g2 e2 e2 c2 d2 B2 |A2 d2 d2 f2 e2 d2 g2 f2 e2 f2 e2 d2 f2 g2 a2 g2 f2 e2 f2 d2 d2 c2 d2 B2 |
%W: A2
% voice 1 (1 lines, 48 notes)
A2 d2 d2 f2 e2 d2 g2 f2 e2 f2 e2 d2 A2 d2 d2 f2 e2 d2 g2 e2 e2 c2 d2 B2 |A2 d2 d2 f2 e2 d2 g2 f2 e2 f2 e2 d2 f2 g2 a2 g2 f2 e2 f2 d2 d2 c2 d2 B2 |
%W: B1
% voice 1 (1 lines, 48 notes)
A2 F2 A2 B2 c2 d2 A2 d2 d2 B2 d2 d2 A2 F2 A2 B2 c2 d2 e2 f2 g2 f2 e2 d2 |A2 F2 A2 B2 c2 d2 A2 d2 d2 B2 d2 d2 f2 g2 a2 g2 f2 e2 f2 d2 d2 c2 d2 B2 |
%W: B2                                                                                                      Last time
% voice 1 (1 lines, 49 notes)
A2 F2 A2 B2 c2 d2 A2 d2 d2 B2 d2 d2 A2 F2 A2 B2 c2 d2 e2 f2 g2 f2 e2 d2 |A2 F2 A2 B2 c2 d2 A2 d2 d2 B2 d2 d2 f2 g2 a2 g2 f2 e2 f2 d2 d2 c2 d2 B2 ||d12 |
